src/assets/duotone/CloudSnow.svg

<svg width="24" height="24" viewBox="0 0 24 24"  xmlns="http://www.w3.org/2000/svg">
<path opacity="0.4" d="M21.74 11.7401C21.13 9.74005 19.61 8.30005 17.7 7.87005C17.14 5.37005 15.6 3.58005 13.42 2.90005C11.04 2.17005 8.28 2.88005 6.55 4.69005C5.02 6.28005 4.52 8.47005 5.11 10.8001C2.98 11.3201 2 13.1801 2 14.8601C2 16.7401 3.23 18.8501 5.97 19.0401H8.5V16.4101C8.5 15.1401 9.26 14.3801 10.53 14.3801H13.47C14.74 14.3801 15.5 15.1401 15.5 16.4101V19.0401H16.31C16.32 19.0401 16.34 19.0401 16.35 19.0401C17.77 19.0401 19.13 18.5101 20.17 17.5601C21.8 16.1401 22.4 13.9101 21.74 11.7401Z" />
<path d="M13.47 14.39H10.53C9.26 14.39 8.5 15.15 8.5 16.42V19.36C8.5 20.63 9.26 21.39 10.53 21.39H13.47C14.74 21.39 15.5 20.63 15.5 19.36V16.42C15.5 15.15 14.74 14.39 13.47 14.39ZM10.5 17.63C10.08 17.63 9.75 17.29 9.75 16.88C9.75 16.47 10.08 16.13 10.5 16.13C10.92 16.13 11.25 16.47 11.25 16.88C11.25 17.29 10.91 17.63 10.5 17.63ZM12 19.88C11.59 19.88 11.25 19.54 11.25 19.13C11.25 18.72 11.59 18.38 12 18.38C12.41 18.38 12.75 18.72 12.75 19.13C12.75 19.54 12.42 19.88 12 19.88ZM13.51 17.63C13.09 17.63 12.76 17.29 12.76 16.88C12.76 16.47 13.09 16.13 13.51 16.13C13.93 16.13 14.26 16.47 14.26 16.88C14.26 17.29 13.92 17.63 13.51 17.63Z" />
</svg>

<?xml version="1.0" encoding="UTF-8"?>
<svg width="24" height="24" viewBox="0 0 24 24" xmlns="http://www.w3.org/2000/svg">
 <path d="m21.74 11.74c-0.61-2-2.13-3.44-4.04-3.87-0.56-2.5-2.1-4.29-4.28-4.97-2.38-0.73-5.14-0.02-6.87 1.79-1.53 1.59-2.03 3.78-1.44 6.11-2.13 0.52-3.11 2.38-3.11 4.06 0 1.88 1.23 3.99 3.97 4.18h2.53v-2.63c0-1.27 0.76-2.03 2.03-2.03h2.94c1.27 0 2.03 0.76 2.03 2.03v2.63h0.81 0.04c1.42 0 2.78-0.53 3.82-1.48 1.63-1.42 2.23-3.65 1.57-5.82z" opacity=".4"/>
 <path d="m13.47 14.39h-2.94c-1.27 0-2.03 0.76-2.03 2.03v2.94c0 1.27 0.76 2.03 2.03 2.03h2.94c1.27 0 2.03-0.76 2.03-2.03v-2.94c0-1.27-0.76-2.03-2.03-2.03zm-2.97 3.24c-0.42 0-0.75-0.34-0.75-0.75s0.33-0.75 0.75-0.75 0.75 0.34 0.75 0.75-0.34 0.75-0.75 0.75zm1.5 2.25c-0.41 0-0.75-0.34-0.75-0.75s0.34-0.75 0.75-0.75 0.75 0.34 0.75 0.75-0.33 0.75-0.75 0.75zm1.51-2.25c-0.42 0-0.75-0.34-0.75-0.75s0.33-0.75 0.75-0.75 0.75 0.34 0.75 0.75-0.34 0.75-0.75 0.75z"/>
</svg>
